X:54
T:Tunbridge Castle. THO5.054
M:2/4
L:1/8
B:Thompson's Complete Collection of 200 Favourite Dances Vol.5
F:https://www.libraryofdance.org/manuals/1780c-Thompson-Compleat-5.pdf
Z:vmp. Peter Dunk 2024
Q:1/4=110
K:G
B/c/B/A/ GG|Ac c2|B/c/B/A/ GB|ce e2|
d/e/d/c/ BB|eg g2|f>g b/a/g/f/|g2 g2:|
|:b/c'/b/a/ gb|af f2|(g/f/e/d/) (e/f/g/f/)|(e/d/c/B/) A2|
B/c/B/A/ GG|c/d/e/c/ AA|e/f/g/e/ af|g2g2:|
W:
W:The 1st Couple Allemand ./.
W:the 2nd Couple do the same ./:
W:Promenade three Couples round :/.
W:the 1st & 2nd Couple Pousset :/:

